X: 22506
T: Lady Dunraven
R: barndance
M: 4/4
K: Gmajor
|:G,3A, B,DGF|D4- D2B,D|E2G2 D2B,2|D4- D2B,A,|
G,3A, B,DGF|GFD2- D2B,D|EFGB- BAG2|A4- A2GF|
E3D- D2GF|EFGD- D2GF|E2G2 D2E2|1 D4- D2B,A,:|2 D4- D2GA||
|:Bdgf gfdc|BAGA- A2GA|Bdgf gab2|a4 a2GA|
Bdgf gfdc|BAGA- A2BA|G4- G2BA|G4- G2BA|
G2B2 A3G|G4- G4||

